!!!OTL: Die elfjaehrige Markgraefin.
!!!OTL-incipit: Mich freud, schoens Lieb, dein schoen anblick,
!!!ARE: Europa, Mitteleuropa, Deutschland
!!!YOR: 2, S. 294
!!    1556 gedruckt in Nuernberg
!!!SCT: Q1053F
!!!TXL: @@DE
!!!YEM: Copyright 1995, estate of Helmut Schaffrath.
**kern	**text
*ICvox	*
!! Mixed meters:  3/2; 4/2
*M3/2	*
*k[b-]	*
*F:	*
!LO:TX:a:t=Forster 5 Nr. 2	!
{4f	Mich
4f	freud,
4g	ſchönds
=1	=1
4a	lieb,
(<4.cc	dein
8b-L	.
8a	.
8b-J)	.
4g	ſchön
4g	an-
=2	=2
2f	-blick,
4r}	.
{4f	da-
4cc	-mit
4dd	ich
=3	=3
*M4/2	*
4ee	bin
4cc	be-
(4.ff	-ſeſ-
8ee	.
4dd	.
4cc	.
2dd)	.
=4	=4
*M3/2	*
2cc	-ſen;
4r}	.
{4cc	ich
4cc	bin
4cc	ge-
=5	=5
(4.ff	.
16eeL	.
16ddJ	.
4cc)	-iagt
4dd	in
4cc	ei-
4cc	-nen
=6	=6
2a}	ſtrick,
{2cc	ich
4f	kan
4f	dein
=7	=7
*M4/2	*
4a	nit
4cc	ver-
(<4b-	-geſ-
4a	.
4g	.
4f	.
2g)	.
=8	=8
2.f}	-ſen.
==	==
!!!AGN: Liebes - Lied
!! Melodievergleich zu Q0053 , anderes Lied.
!!!ONB: ESAC (Essen Associative Code) Database: BALLADE
!!!AMT: irregular
!!!AIN: vox
!!!EED: Helmut Schaffrath
!!!EEV: 1.0
!!!RDF**kern: <= below
!!!source: Deutsche Volkslieder mit ihren Melodien. Herausgegeben vom Deutschen Volksliedarchiv. Zweiter Band Balladen. Berlin 1939.
!!!page: 294
!!!ENC: Anna Maria Matuszewska
!!!EEV: 2025/02/17
*-	*-
